public/common/logo-white-desktop.svg

<svg width="228" height="55" viewBox="0 0 228 55" fill="none" xmlns="http://www.w3.org/2000/svg">
<path d="M86.2931 45.0997H9.99168C4.86976 45.0997 0.717285 40.9232 0.717285 35.7717V9.32802C0.717285 4.17649 4.86976 0 9.99168 0H77.0187C82.1406 0 86.2931 4.17649 86.2931 9.32802V45.0997Z" fill="#34D186"/>
<path d="M11.3938 10.1918H17.5736L22.6323 24.592L28.0763 10.1918H31.8562L37.2023 24.4268L42.2674 10.1918H48.4882L39.3054 35.5017H35.3045L29.9394 21.0793L24.4133 35.5017H20.4598L11.3938 10.1918Z" fill="white"/>
<path d="M77.2746 24.6841H56.989C57.2827 26.4849 58.0658 27.9141 59.3352 28.9749C60.6078 30.0389 62.2309 30.5693 64.2045 30.5693C66.5634 30.5693 68.5907 29.7404 70.2864 28.0793L75.6073 30.5915C74.281 32.4845 72.6926 33.8819 70.8422 34.7903C68.9917 35.6986 66.7939 36.1528 64.2519 36.1528C60.3047 36.1528 57.09 34.9014 54.608 32.3955C52.126 29.8896 50.885 26.7549 50.885 22.9849C50.885 19.1229 52.1229 15.9183 54.5954 13.3647C57.0711 10.8144 60.172 9.5376 63.9045 9.5376C67.8675 9.5376 71.0885 10.8144 73.5736 13.3647C76.0557 15.9151 77.2967 19.2849 77.2967 23.4709L77.2746 24.6841ZM70.959 19.685C70.5422 18.2749 69.7212 17.1251 68.4928 16.2422C67.2644 15.3593 65.8402 14.9178 64.2171 14.9178C62.4551 14.9178 60.911 15.4133 59.5847 16.4074C58.751 17.0267 57.9774 18.1224 57.2669 19.6882H70.959V19.685Z" fill="white"/>
<path d="M102.66 19.7009H108.975V45.0108H102.66V19.7009Z" fill="white"/>
<path d="M91.3044 9.93146H97.62V45.0108H91.3044V9.93146Z" fill="white"/>
<path d="M105.818 9.2804C106.923 9.2804 107.873 9.68375 108.666 10.4905C109.458 11.2972 109.853 12.2754 109.853 13.4219C109.853 14.5526 109.462 15.5181 108.678 16.3185C107.895 17.1188 106.957 17.5159 105.865 17.5159C104.744 17.5159 103.784 17.1093 102.994 16.2931C102.202 15.48 101.807 14.4891 101.807 13.3267C101.807 12.2087 102.199 11.2559 102.982 10.4651C103.765 9.67422 104.709 9.2804 105.818 9.2804Z" fill="#34D186"/>
<path d="M114.71 19.701H121.025V22.2958C122.456 21.0825 123.754 20.2377 124.916 19.7613C126.078 19.2881 127.268 19.0499 128.484 19.0499C130.979 19.0499 133.095 19.9265 134.834 21.6796C136.297 23.1692 137.029 25.3702 137.029 28.2858V45.0108H130.783V33.9264C130.783 30.906 130.647 28.9019 130.379 27.9078C130.11 26.9137 129.64 26.161 128.97 25.6433C128.301 25.1256 127.474 24.8652 126.492 24.8652C125.216 24.8652 124.12 25.2939 123.204 26.1547C122.289 27.0154 121.654 28.2032 121.3 29.7213C121.117 30.5122 121.022 32.2241 121.022 34.857V45.0108H114.707V19.701H114.71Z" fill="white"/>
<path d="M161.729 19.7009H168.019V41.3805C168.019 45.6618 167.164 48.8093 165.452 50.826C163.153 53.5542 159.692 54.9199 155.066 54.9199C152.6 54.9199 150.525 54.6087 148.845 53.9894C147.165 53.37 145.748 52.4585 144.589 51.2548C143.433 50.0511 142.577 48.5901 142.021 46.8687H148.984C149.6 47.5833 150.396 48.1201 151.365 48.4853C152.335 48.8505 153.484 49.0316 154.81 49.0316C156.506 49.0316 157.87 48.768 158.903 48.2407C159.936 47.7135 160.665 47.0307 161.088 46.1922C161.511 45.3537 161.723 43.9118 161.723 41.8664C160.611 42.9844 159.449 43.7848 158.23 44.2739C157.011 44.763 155.632 45.0075 154.091 45.0075C150.715 45.0075 147.86 43.7816 145.533 41.3329C143.206 38.8841 142.04 35.7812 142.04 32.0271C142.04 28.0094 143.275 24.7857 145.741 22.3497C147.977 20.1487 150.645 19.0466 153.743 19.0466C155.193 19.0466 156.56 19.3134 157.848 19.8502C159.137 20.3837 160.428 21.2667 161.723 22.4895V19.7009H161.729ZM155.183 24.9826C153.194 24.9826 151.552 25.6528 150.257 26.9962C148.962 28.3365 148.315 30.023 148.315 32.0557C148.315 34.1646 148.978 35.8923 150.304 37.2421C151.631 38.5919 153.295 39.2653 155.3 39.2653C157.258 39.2653 158.875 38.6047 160.144 37.2866C161.417 35.9685 162.051 34.2408 162.051 32.1001C162.051 29.9912 161.41 28.2762 160.131 26.9581C158.852 25.6401 157.204 24.9826 155.183 24.9826Z" fill="white"/>
<path d="M174.382 19.7009H180.764V31.8906C180.764 34.2631 180.925 35.9114 181.25 36.8325C181.576 37.7567 182.097 38.4713 182.817 38.9826C183.537 39.494 184.421 39.7512 185.472 39.7512C186.524 39.7512 187.414 39.5003 188.15 38.9953C188.886 38.4904 189.429 37.7503 189.786 36.7753C190.048 36.048 190.181 34.4885 190.181 32.1002V19.7009H196.496V30.4232C196.496 34.8443 196.149 37.8678 195.454 39.494C194.605 41.479 193.357 43.0035 191.706 44.0643C190.054 45.1251 187.958 45.6587 185.416 45.6587C182.656 45.6587 180.423 45.0393 178.721 43.7975C177.016 42.5557 175.819 40.8279 175.124 38.611C174.632 37.077 174.385 34.2853 174.385 30.2358V19.7009H174.382Z" fill="white"/>
<path d="M221.402 19.701H227.717V45.0108H221.402V42.3366C220.17 43.5149 218.932 44.3629 217.694 44.8837C216.453 45.4014 215.111 45.6619 213.662 45.6619C210.413 45.6619 207.602 44.3946 205.231 41.8601C202.859 39.3257 201.672 36.1719 201.672 32.4051C201.672 28.4986 202.818 25.2939 205.114 22.7976C207.41 20.3012 210.195 19.053 213.476 19.053C214.985 19.053 216.403 19.3389 217.726 19.9137C219.049 20.4886 220.274 21.3493 221.399 22.4959V19.701H221.402ZM214.764 24.9128C212.813 24.9128 211.193 25.6084 209.901 26.9963C208.61 28.3842 207.965 30.1628 207.965 32.3352C207.965 34.5203 208.622 36.3211 209.936 37.7313C211.249 39.1415 212.866 39.8497 214.789 39.8497C216.772 39.8497 218.418 39.1573 219.722 37.7694C221.026 36.3815 221.683 34.5616 221.683 32.313C221.683 30.112 221.029 28.3271 219.722 26.9614C218.411 25.5925 216.76 24.9128 214.764 24.9128Z" fill="white"/>
</svg>

<svg width="228" height="55" fill="none" xmlns="http://www.w3.org/2000/svg"><path d="M86.293 45.1H9.992C4.87 45.1.717 40.923.717 35.772V9.328C.717 4.176 4.87 0 9.992 0h67.027c5.122 0 9.274 4.176 9.274 9.328V45.1z" fill="#34D186"/><path d="M11.394 10.192h6.18l5.058 14.4 5.444-14.4h3.78l5.346 14.235 5.065-14.235h6.221l-9.183 25.31h-4l-5.366-14.423-5.526 14.423H20.46l-9.066-25.31zM77.275 24.684H56.989c.294 1.8 1.077 3.23 2.346 4.29 1.273 1.065 2.896 1.595 4.87 1.595 2.358 0 4.386-.829 6.081-2.49l5.321 2.512c-1.326 1.893-2.914 3.29-4.765 4.2-1.85.908-4.048 1.362-6.59 1.362-3.947 0-7.162-1.252-9.644-3.758-2.482-2.505-3.723-5.64-3.723-9.41 0-3.862 1.238-7.067 3.71-9.62 2.476-2.55 5.577-3.827 9.31-3.827 3.963 0 7.183 1.276 9.669 3.827 2.482 2.55 3.723 5.92 3.723 10.106l-.022 1.213zm-6.316-4.999c-.417-1.41-1.238-2.56-2.466-3.443-1.229-.883-2.653-1.324-4.276-1.324-1.762 0-3.306.495-4.632 1.49-.834.619-1.608 1.714-2.318 3.28h13.692v-.003zM102.66 19.7h6.315v25.31h-6.315V19.7zM91.304 9.931h6.316v35.08h-6.316V9.93z" fill="#fff"/><path d="M105.818 9.28c1.105 0 2.055.404 2.848 1.21.792.807 1.187 1.785 1.187 2.932 0 1.13-.391 2.096-1.175 2.896-.783.8-1.721 1.198-2.813 1.198-1.121 0-2.081-.407-2.871-1.223-.792-.813-1.187-1.804-1.187-2.966 0-1.118.392-2.071 1.175-2.862.783-.79 1.727-1.185 2.836-1.185z" fill="#34D186"/><path d="M114.71 19.701h6.315v2.595c1.431-1.213 2.729-2.058 3.891-2.535a9.385 9.385 0 0 1 3.568-.711c2.495 0 4.611.877 6.35 2.63 1.463 1.49 2.195 3.69 2.195 6.606V45.01h-6.246V33.926c0-3.02-.136-5.024-.404-6.018-.269-.994-.739-1.747-1.409-2.265-.669-.517-1.496-.778-2.478-.778-1.276 0-2.372.429-3.288 1.29-.915.86-1.55 2.048-1.904 3.566-.183.791-.278 2.503-.278 5.136v10.154h-6.315V19.7h.003zM161.729 19.7h6.29v21.68c0 4.282-.855 7.43-2.567 9.446-2.299 2.728-5.76 4.094-10.386 4.094-2.466 0-4.541-.311-6.221-.93-1.68-.62-3.097-1.532-4.256-2.735-1.156-1.204-2.012-2.665-2.568-4.386h6.963c.616.714 1.412 1.251 2.381 1.616.97.365 2.119.547 3.445.547 1.696 0 3.06-.264 4.093-.791s1.762-1.21 2.185-2.049c.423-.838.635-2.28.635-4.326-1.112 1.118-2.274 1.919-3.493 2.408-1.219.489-2.598.733-4.139.733-3.376 0-6.231-1.225-8.558-3.674s-3.493-5.552-3.493-9.306c0-4.018 1.235-7.241 3.701-9.677 2.236-2.201 4.904-3.303 8.002-3.303 1.45 0 2.817.266 4.105.803 1.289.534 2.58 1.417 3.875 2.64V19.7h.006zm-6.546 5.283c-1.989 0-3.631.67-4.926 2.013-1.295 1.34-1.942 3.027-1.942 5.06 0 2.109.663 3.836 1.989 5.186 1.327 1.35 2.991 2.023 4.996 2.023 1.958 0 3.575-.66 4.844-1.978 1.273-1.319 1.907-3.046 1.907-5.187 0-2.109-.641-3.824-1.92-5.142-1.279-1.318-2.927-1.975-4.948-1.975zM174.382 19.7h6.382v12.19c0 2.373.161 4.021.486 4.943.326.924.847 1.638 1.567 2.15.72.511 1.604.768 2.655.768 1.052 0 1.942-.25 2.678-.756.736-.505 1.279-1.245 1.636-2.22.262-.727.395-2.286.395-4.675V19.7h6.315v10.723c0 4.421-.347 7.445-1.042 9.071-.849 1.985-2.097 3.51-3.748 4.57-1.652 1.061-3.748 1.595-6.29 1.595-2.76 0-4.993-.62-6.695-1.861-1.705-1.242-2.902-2.97-3.597-5.187-.492-1.534-.739-4.326-.739-8.375V19.7h-.003zM221.402 19.701h6.315v25.31h-6.315v-2.674c-1.232 1.178-2.47 2.026-3.708 2.547-1.241.517-2.583.778-4.032.778-3.249 0-6.06-1.267-8.431-3.802-2.372-2.534-3.559-5.688-3.559-9.455 0-3.906 1.146-7.111 3.442-9.607 2.296-2.497 5.081-3.745 8.362-3.745 1.509 0 2.927.286 4.25.86 1.323.576 2.548 1.436 3.673 2.583V19.7h.003zm-6.638 5.212c-1.951 0-3.571.695-4.863 2.083-1.291 1.388-1.936 3.167-1.936 5.34 0 2.184.657 3.985 1.971 5.395 1.313 1.41 2.93 2.119 4.853 2.119 1.983 0 3.629-.693 4.933-2.08 1.304-1.389 1.961-3.208 1.961-5.457 0-2.201-.654-3.986-1.961-5.352-1.311-1.368-2.962-2.048-4.958-2.048z" fill="#fff"/></svg>
